X: 1b
T: The Birds In The Tree
M: 4/4
L: 1/8
R: hornpipe
K: A Major
|: cd | 
e2 fc ecce | dcBc A2 BA | FBBd cAAB | cAeg afec |
ecfc ecce | dcBc AABA | FBBd ceaf | ecBc A2 :|
|: AB | 
cBce agac' | bafg afed | cBce agac' | bafg a2 ab |
c'aac' bafg | agaf ec A2 | EAAB ceaf | ecBc A2 :|
